communes/951.svg

<?xml version="1.0" encoding="UTF-8" standalone="no"?>
<svg
   xmlns:dc="http://purl.org/dc/elements/1.1/"
   xmlns:cc="http://web.resource.org/cc/"
   xmlns:rdf="http://www.w3.org/1999/02/22-rdf-syntax-ns#"
   xmlns:svg="http://www.w3.org/2000/svg"
   xmlns="http://www.w3.org/2000/svg"
   xmlns:xlink="http://www.w3.org/1999/xlink"
   xmlns:sodipodi="http://sodipodi.sourceforge.net/DTD/sodipodi-0.dtd"
   xmlns:inkscape="http://www.inkscape.org/namespaces/inkscape"
   height="763"
   width="603"
   version="1.0"
   id="svg20"
   sodipodi:version="0.32"
   inkscape:version="0.44.1"
   sodipodi:docname="Affoltern im Emmental-coat of arms.svg"
   sodipodi:docbase="F:\Mis Documentos\Mis imágenes\Encyclopédie\Escudos de Suiza">
  <metadata
     id="metadata31">
    <rdf:RDF>
      <cc:Work
         rdf:about="">
        <dc:format>image/svg+xml</dc:format>
        <dc:type
           rdf:resource="http://purl.org/dc/dcmitype/StillImage" />
        <dc:date>07-AUG-2006</dc:date>
        <dc:creator>
          <cc:Agent>
            <dc:title>Jérôme BLUM (wagner51)</dc:title>
          </cc:Agent>
        </dc:creator>
        <cc:license
           rdf:resource="http://creativecommons.org/licenses/GPL/2.0/" />
        <dc:coverage />
        <dc:description>Gabarit pour le Projet:Blasons de WIkipédia</dc:description>
        <dc:subject>
          <rdf:Bag>
            <rdf:li>blason suisse modèle gabarit projet blasons</rdf:li>
          </rdf:Bag>
        </dc:subject>
        <dc:language>fr</dc:language>
        <dc:title>Gabrit d'un blason suisse</dc:title>
      </cc:Work>
      <cc:License
         rdf:about="http://creativecommons.org/licenses/GPL/2.0/">
        <cc:permits
           rdf:resource="http://web.resource.org/cc/Reproduction" />
        <cc:permits
           rdf:resource="http://web.resource.org/cc/Distribution" />
        <cc:requires
           rdf:resource="http://web.resource.org/cc/Notice" />
        <cc:permits
           rdf:resource="http://web.resource.org/cc/DerivativeWorks" />
        <cc:requires
           rdf:resource="http://web.resource.org/cc/ShareAlike" />
        <cc:requires
           rdf:resource="http://web.resource.org/cc/SourceCode" />
      </cc:License>
    </rdf:RDF>
  </metadata>
  <defs
     id="defs29">
    <linearGradient
       id="linearGradient2893">
      <stop
         style="stop-color:#ffffff;stop-opacity:0.3137255;"
         offset="0"
         id="stop2895" />
      <stop
         id="stop2897"
         offset="0.19"
         style="stop-color:#ffffff;stop-opacity:0.25098041;" />
      <stop
         style="stop-color:#6b6b6b;stop-opacity:0.1254902;"
         offset="0.60000002"
         id="stop2901" />
      <stop
         style="stop-color:#000000;stop-opacity:0.1254902;"
         offset="1"
         id="stop2899" />
    </linearGradient>
    <linearGradient
       id="linearGradient2955">
      <stop
         style="stop-color:white;stop-opacity:0;"
         offset="0"
         id="stop2965" />
      <stop
         style="stop-color:black;stop-opacity:0.64583331;"
         offset="1"
         id="stop2959" />
    </linearGradient>
    <radialGradient
       inkscape:collect="always"
       xlink:href="#linearGradient2893"
       id="radialGradient3236"
       gradientUnits="userSpaceOnUse"
       gradientTransform="matrix(1.215027,1.531577e-24,1.464684e-23,1.266667,-839.1924,-490.4894)"
       cx="858.04236"
       cy="579.93323"
       fx="858.04236"
       fy="579.93323"
       r="300" />
  </defs>
  <sodipodi:namedview
     inkscape:window-height="682"
     inkscape:window-width="1024"
     inkscape:pageshadow="2"
     inkscape:pageopacity="0.0"
     guidetolerance="10.0"
     gridtolerance="10.0"
     objecttolerance="10.0"
     borderopacity="1.0"
     bordercolor="#666666"
     pagecolor="#ffffff"
     id="base"
     inkscape:zoom="0.48301887"
     inkscape:cx="710.62801"
     inkscape:cy="305.34976"
     inkscape:window-x="-4"
     inkscape:window-y="-4"
     inkscape:current-layer="layer2"
     showgrid="true"
     showguides="true"
     inkscape:guide-bbox="true" />
  <desc
     id="desc22">Coat of Arms of Canton of Freiburg (Fribourg)</desc>
  <g
     inkscape:groupmode="layer"
     id="layer1"
     inkscape:label="Fond écu"
     sodipodi:insensitive="true">
    <path
       id="path1899"
       d="M 1.5,1.49998 L 1.5,460.3679 C 1.5,626.6785 135.81456,761.5 301.49999,761.5 C 467.18543,761.5 601.5,626.6785 601.5,460.3679 L 601.5,1.49998 L 1.5,1.49998 z "
       style="fill:white;fill-opacity:1" />
  </g>
  <g
     inkscape:groupmode="layer"
     id="layer2"
     inkscape:label="Meubles"
     sodipodi:insensitive="true">
    <g
       id="g7329"
       transform="matrix(1.056371,0,0,1.056371,-43.32027,-13.1181)">
      <path
         sodipodi:nodetypes="ccc"
         id="path2828"
         d="M 589.15533,317.02682 C 560.87709,259.17284 520.07608,237.41388 459.06598,273.90467 C 479.71163,333.71367 520.34505,353.54709 589.15533,317.02682 z "
         style="fill:#5ab532;fill-opacity:1;fill-rule:evenodd;stroke:black;stroke-width:3;stroke-linecap:butt;stroke-linejoin:miter;stroke-miterlimit:4;stroke-dasharray:none;stroke-opacity:1" />
      <path
         style="fill:#5ab532;fill-opacity:1;fill-rule:evenodd;stroke:black;stroke-width:3;stroke-linecap:butt;stroke-linejoin:miter;stroke-miterlimit:4;stroke-dasharray:none;stroke-opacity:1"
         d="M 542.36125,104.63522 C 480.52153,122.59607 462.22278,175.69964 487.73495,242.0543 C 553.40565,229.65447 576.1499,171.83562 542.36125,104.63522 z "
         id="path3715"
         sodipodi:nodetypes="ccc" />
      <path
         sodipodi:nodetypes="ccc"
         id="path3717"
         d="M 496.01558,60.524325 C 438.66986,43.646022 363.90033,85.541109 384.2761,152.39743 C 424.1801,150.80299 496.03545,141.88578 496.01558,60.524325 z "
         style="fill:#5ab532;fill-opacity:1;fill-rule:evenodd;stroke:black;stroke-width:3;stroke-linecap:butt;stroke-linejoin:miter;stroke-miterlimit:4;stroke-dasharray:none;stroke-opacity:1" />
      <path
         style="fill:#5ab532;fill-opacity:1;fill-rule:evenodd;stroke:black;stroke-width:3;stroke-linecap:butt;stroke-linejoin:miter;stroke-miterlimit:4;stroke-dasharray:none;stroke-opacity:1"
         d="M 324.78996,34.0095 C 277.22888,70.222123 276.10616,127.08573 325.4167,161.82765 C 355.71598,135.23606 390.36134,82.17674 324.78996,34.0095 z "
         id="path3719"
         sodipodi:nodetypes="ccc" />
      <path
         sodipodi:nodetypes="ccc"
         id="path3721"
         d="M 160.16512,64.185711 C 159.59803,124.99267 213.77556,171.01774 272.79584,148.72878 C 277.37387,101.99625 238.29606,41.486825 160.16512,64.185711 z "
         style="fill:#5ab532;fill-opacity:1;fill-rule:evenodd;stroke:black;stroke-width:3;stroke-linecap:butt;stroke-linejoin:miter;stroke-miterlimit:4;stroke-dasharray:none;stroke-opacity:1" />
      <path
         style="fill:#5ab532;fill-opacity:1;fill-rule:evenodd;stroke:black;stroke-width:3;stroke-linecap:butt;stroke-linejoin:miter;stroke-miterlimit:4;stroke-dasharray:none;stroke-opacity:1"
         d="M 112.31868,105.07577 C 80.519305,156.90827 104.70572,240.88879 169.66846,242.77724 C 190.4288,205.79794 190.98261,125.85246 112.31868,105.07577 z "
         id="path3723"
         sodipodi:nodetypes="ccc" />
      <path
         sodipodi:nodetypes="ccc"
         id="path3725"
         d="M 65.781037,318.18853 C 117.90312,349.51093 190.81391,327.44673 192.10616,262.46942 C 154.93793,242.04928 85.834983,239.33726 65.781037,318.18853 z "
         style="fill:#5ab532;fill-opacity:1;fill-rule:evenodd;stroke:black;stroke-width:3;stroke-linecap:butt;stroke-linejoin:miter;stroke-miterlimit:4;stroke-dasharray:none;stroke-opacity:1" />
      <path
         style="fill:#5ab532;fill-opacity:1;fill-rule:evenodd;stroke:black;stroke-width:3;stroke-linecap:butt;stroke-linejoin:miter;stroke-miterlimit:4;stroke-dasharray:none;stroke-opacity:1"
         d="M 65.781037,318.18853 C 117.90312,349.51093 190.81391,327.44673 192.10616,262.46942 C 154.93793,242.04928 85.834983,239.33726 65.781037,318.18853 z "
         id="path3727"
         sodipodi:nodetypes="ccc" />
      <path
         sodipodi:nodetypes="ccc"
         id="path3729"
         d="M 51.974946,358.84273 C 58.196687,419.33319 119.59925,455.01843 172.35247,426.45863 C 166.38318,384.47259 127.08503,327.56719 51.974946,358.84273 z "
         style="fill:#5ab532;fill-opacity:1;fill-rule:evenodd;stroke:black;stroke-width:3;stroke-linecap:butt;stroke-linejoin:miter;stroke-miterlimit:4;stroke-dasharray:none;stroke-opacity:1" />
      <path
         style="fill:#5ab532;fill-opacity:1;fill-rule:evenodd;stroke:black;stroke-width:3;stroke-linecap:butt;stroke-linejoin:miter;stroke-miterlimit:4;stroke-dasharray:none;stroke-opacity:1"
         d="M 480.24715,426.80349 C 535.57368,452.03804 595.97264,420.01683 598.02422,360.06387 C 558.78731,343.97275 491.26624,346.19168 480.24715,426.80349 z "
         id="path3731"
         sodipodi:nodetypes="ccc" />
      <path
         style="fill:#5ab532;fill-opacity:1;fill-rule:evenodd;stroke:black;stroke-width:3;stroke-linecap:butt;stroke-linejoin:miter;stroke-miterlimit:4;stroke-dasharray:none;stroke-opacity:1"
         d="M 80.215374,543.17311 C 136.30712,543.45531 182.79174,480.20522 171.16843,432.70526 C 128.87357,429.60626 76.478055,456.62243 80.215374,543.17311 z "
         id="path3733"
         sodipodi:nodetypes="ccc" />
      <path
         sodipodi:nodetypes="ccc"
         id="path3735"
         d="M 479.46672,431.08826 C 470.28466,490.5622 506.83791,551.30594 566.29806,543.36511 C 574.19855,505.61435 560.78875,435.78632 479.46672,431.08826 z "
         style="fill:#5ab532;fill-opacity:1;fill-rule:evenodd;stroke:black;stroke-width:3;stroke-linecap:butt;stroke-linejoin:miter;stroke-miterlimit:4;stroke-dasharray:none;stroke-opacity:1" />
      <path
         sodipodi:nodetypes="ccccccssccccccccccccccccccccccccccccccccccccccccccccccccccccccsscccc"
         id="path1921"
         d="M 306.09712,577.67352 C 308.2321,619.59077 268.82692,661.50798 322.23604,714.26946 C 365.9041,661.29069 340.70258,621.83037 338.86391,579.8424 C 361.58148,634.1251 444.59897,608.61009 397.63604,683.6715 C 425.70682,678.74209 463.80643,660.33623 428.23399,611.3973 C 454.17856,610.52402 486.71281,604.1885 487.49506,647.77889 C 531.45425,586.78206 479.68125,567.08333 428.96243,581.15108 C 397.46829,589.88648 375.30137,577.40613 360.78648,548.77644 C 341.00825,509.76515 346.32745,426.87353 346.32745,426.87353 C 365.35819,437.05143 385.83483,437.5073 403.41964,437.9518 L 409.92623,460.59731 L 421.49344,461.08625 L 419.49883,438.93296 C 440.55646,438.68502 462.10114,436.03229 479.30862,431.93419 L 535.67786,506.61124 L 485.32622,429.04237 L 569.40164,375.07596 C 487.03357,431.39334 409.68579,428.70719 345.6045,401.33624 L 340.54384,304.73663 C 361.5413,311.915 385.59486,311.45312 410.41517,309.07434 L 411.37212,328.10508 L 425.34221,328.10508 L 426.06515,304.50262 C 445.13943,295.70694 453.58481,284.78544 463.40366,274.13867 C 493.59768,292.78782 523.79167,296.85265 553.98566,306.9055 C 526.20151,294.84951 498.41735,289.44826 470.63319,268.84401 C 506.05073,235.64466 511.60369,187.51302 529.89426,145.75016 C 495.39685,218.40289 454.95204,328.23273 340.30984,272.45878 L 339.58689,211.02884 C 341.83407,155.56442 413.56506,168.38279 408.96928,203.56534 L 421.00449,201.39646 C 425.63243,168.7992 407.54654,156.07648 381.49711,150.32187 L 464.12664,82.151376 C 434.78601,102.84305 384.80293,141.73822 373.81826,146.30105 C 357.59878,152.30653 346.63924,161.21868 335.97213,172.96739 C 334.3379,136.11079 328.26791,99.25424 322.95899,62.397686 C 324.65935,100.45918 326.91099,138.52066 315.49549,176.58211 C 278.92651,138.956 228.74582,114.94163 185.1721,84.320252 L 269.24752,152.49071 C 236.23741,151.1797 238.52101,178.42569 237.20368,196.3358 L 251.70794,195.08417 C 252.44053,147.08567 308.02962,181.75616 308.9889,209.34894 L 307.54301,270.28991 C 244.82493,325.79394 166.51498,254.57648 126.86798,139.96656 C 142.3572,183.33914 155.60624,234.75333 177.94261,269.56696 L 102.77662,305.22557 L 181.55737,276.30751 C 190.58659,290.1648 205.84296,297.7949 222.51065,304.01368 L 219.61882,328.10508 L 233.58891,328.10508 L 233.58891,308.35139 C 263.60476,314.69241 284.82805,310.4823 305.37414,305.45957 L 303.69424,396.99853 C 235.6446,432.32962 165.77232,429.38537 93.867189,383.75139 L 163.97252,426.87353 L 109.28317,505.16535 L 175.77373,434.10307 C 190.23114,437.77978 204.93851,440.70649 221.29872,438.67474 L 223.23359,462.76615 L 238.64957,462.76615 C 235.50917,456.04618 228.38077,452.90025 240.09546,440.60962 C 245.7091,435.81054 282.40968,437.09812 302.48235,430.4883 C 295.12071,479.83709 296.37163,540.31913 273.09629,565.14936 C 246.6312,593.3824 219.96044,574.77178 185.11695,580.79346 C 117.69686,592.44505 143.80136,631.58245 168.31023,655.00839 C 161.49414,619.96186 183.3038,607.17976 228.52825,612.60922 C 203.77368,642.23221 198.89641,685.51693 259.1262,683.6715 C 205.03009,613.46231 288.22552,635.39483 306.09712,577.67352 z "
         style="fill:#5ab532;fill-opacity:1;fill-rule:evenodd;stroke:black;stroke-width:3;stroke-linecap:butt;stroke-linejoin:miter;stroke-miterlimit:4;stroke-dasharray:none;stroke-opacity:1" />
      <path
         sodipodi:nodetypes="cccccs"
         id="path3737"
         d="M 264.77236,464.33609 C 281.83402,488.54376 283.64385,536.54772 233.58891,541.30607 L 228.98808,534.33246 L 226.10412,541.30607 C 183.63033,547.1867 159.94613,439.61763 228.66013,462.80249 C 228.66013,462.80249 254.28623,449.45809 264.77236,464.33609 z "
         style="fill:#e20909;fill-opacity:1;fill-rule:evenodd;stroke:black;stroke-width:3;stroke-linecap:butt;stroke-linejoin:miter;stroke-miterlimit:4;stroke-dasharray:none;stroke-opacity:1" />
      <path
         style="fill:#e20909;fill-opacity:1;fill-rule:evenodd;stroke:black;stroke-width:3;stroke-linecap:butt;stroke-linejoin:miter;stroke-miterlimit:4;stroke-dasharray:none;stroke-opacity:1"
         d="M 461.94453,468.05014 C 478.07689,490.84084 472.14063,530.50194 426.06191,539.23651 L 421.46108,532.26291 L 418.57712,539.23651 C 366.78267,547.65913 352.9076,439.05793 416.07247,462.54032 C 416.07247,462.54032 446.5662,446.32472 461.94453,468.05014 z "
         id="path4624"
         sodipodi:nodetypes="cccccs" />
      <path
         sodipodi:nodetypes="cccccs"
         id="path4626"
         d="M 467.57026,328.45595 C 483.70263,351.24665 471.98276,391.99219 425.90404,400.72676 L 421.30321,393.75315 L 418.41925,400.72676 C 366.6248,409.14938 352.74973,300.54817 415.9146,324.03057 C 415.9146,324.03057 452.19194,306.73052 467.57026,328.45595 z "
         style="fill:#e20909;fill-opacity:1;fill-rule:evenodd;stroke:black;stroke-width:3;stroke-linecap:butt;stroke-linejoin:miter;stroke-miterlimit:4;stroke-dasharray:none;stroke-opacity:1" />
      <path
         style="fill:#e20909;fill-opacity:1;fill-rule:evenodd;stroke:black;stroke-width:3;stroke-linecap:butt;stroke-linejoin:miter;stroke-miterlimit:4;stroke-dasharray:none;stroke-opacity:1"
         d="M 454.95773,199.89186 C 471.09009,222.68256 461.90056,259.45185 415.82184,268.18641 L 411.221,261.21281 L 408.33704,268.18641 C 354.19811,276.05083 335.46754,166.39683 414.50782,193.6591 C 414.50782,193.6591 439.5794,178.16644 454.95773,199.89186 z "
         id="path4628"
         sodipodi:nodetypes="cccccs" />
      <path
         style="fill:#e20909;fill-opacity:1;fill-rule:evenodd;stroke:black;stroke-width:3;stroke-linecap:butt;stroke-linejoin:miter;stroke-miterlimit:4;stroke-dasharray:none;stroke-opacity:1"
         d="M 267.15395,331.3827 C 284.2156,355.59037 279.15739,397.44927 229.10245,402.20761 L 224.50162,395.23401 L 221.61766,402.20761 C 164.46356,407.88546 147.2381,290.21245 224.17367,327.68026 C 224.17367,327.68026 256.66782,316.50469 267.15395,331.3827 z "
         id="path4630"
         sodipodi:nodetypes="cccccs" />
      <path
         sodipodi:nodetypes="cccccs"
         id="path4632"
         d="M 290.43766,215.36386 C 291.44727,221.03783 294.85012,261.91075 244.79518,266.66909 L 240.19435,259.69549 L 237.31039,266.66909 C 178.74793,264.90659 177.46718,164.61987 239.8664,192.14174 C 239.8664,192.14174 283.83436,178.25371 290.43766,215.36386 z "
         style="fill:#e20909;fill-opacity:1;fill-rule:evenodd;stroke:black;stroke-width:3;stroke-linecap:butt;stroke-linejoin:miter;stroke-miterlimit:4;stroke-dasharray:none;stroke-opacity:1" />
    </g>
  </g>
  <g
     inkscape:groupmode="layer"
     id="layer3"
     inkscape:label="Reflet final"
     style="display:inline"
     sodipodi:insensitive="true">
    <path
       style="fill:url(#radialGradient3236);fill-opacity:1"
       d="M 1.5,1.5 L 1.5,460.3679 C 1.5,626.67854 135.81454,761.5 301.49993,761.5 C 467.1854,761.5 601.5,626.67854 601.5,460.3679 L 601.5,1.5 L 1.5,1.5 z "
       id="path2346" />
  </g>
  <g
     inkscape:groupmode="layer"
     id="layer4"
     inkscape:label="Contour final"
     style="display:inline"
     sodipodi:insensitive="true">
    <path
       style="fill:none;fill-opacity:1;stroke:#000000;stroke-width:3;stroke-miterlimit:4;stroke-dasharray:none;stroke-opacity:1"
       d="M 1.5,1.5 L 1.5,460.36794 C 1.5,626.67854 135.81454,761.5 301.49993,761.5 C 467.1854,761.5 601.5,626.67854 601.5,460.36794 L 601.5,1.5 L 1.5,1.5 z "
       id="path3239" />
  </g>
</svg>

<?xml version="1.0" encoding="UTF-8"?>
<svg version="1.0" viewBox="0 0 603 763" xmlns="http://www.w3.org/2000/svg" xmlns:cc="http://web.resource.org/cc/" xmlns:dc="http://purl.org/dc/elements/1.1/" xmlns:rdf="http://www.w3.org/1999/02/22-rdf-syntax-ns#" xmlns:xlink="http://www.w3.org/1999/xlink">
<metadata>
<rdf:RDF>
<cc:Work rdf:about="">
<dc:format>image/svg+xml</dc:format>
<dc:type rdf:resource="http://purl.org/dc/dcmitype/StillImage"/>
<dc:date>07-AUG-2006</dc:date>
<dc:creator>
<cc:Agent>
<dc:title>Jérôme BLUM (wagner51)</dc:title>
</cc:Agent>
</dc:creator>
<cc:license rdf:resource="http://creativecommons.org/licenses/GPL/2.0/"/>
<dc:coverage/>
<dc:description>Gabarit pour le Projet:Blasons de WIkipédia</dc:description>
<dc:subject>
<rdf:Bag>
<rdf:li>blason suisse modèle gabarit projet blasons</rdf:li>
</rdf:Bag>
</dc:subject>
<dc:language>fr</dc:language>
<dc:title>Gabrit d'un blason suisse</dc:title>
</cc:Work>
<cc:License rdf:about="http://creativecommons.org/licenses/GPL/2.0/">
<cc:permits rdf:resource="http://web.resource.org/cc/Reproduction"/>
<cc:permits rdf:resource="http://web.resource.org/cc/Distribution"/>
<cc:requires rdf:resource="http://web.resource.org/cc/Notice"/>
<cc:permits rdf:resource="http://web.resource.org/cc/DerivativeWorks"/>
<cc:requires rdf:resource="http://web.resource.org/cc/ShareAlike"/>
<cc:requires rdf:resource="http://web.resource.org/cc/SourceCode"/>
</cc:License>
</rdf:RDF>
</metadata>
<defs>
<radialGradient id="a" cx="858.04" cy="579.93" r="300" gradientTransform="matrix(1.215 1.5316e-24 1.4647e-23 1.2667 -839.19 -490.49)" gradientUnits="userSpaceOnUse">
<stop stop-color="#fff" stop-opacity=".31373" offset="0"/>
<stop stop-color="#fff" stop-opacity=".25098" offset=".19"/>
<stop stop-color="#6b6b6b" stop-opacity=".12549" offset=".6"/>
<stop stop-opacity=".12549" offset="1"/>
</radialGradient>
</defs>
<desc>Coat of Arms of Canton of Freiburg (Fribourg)</desc>
<path d="m1.5 1.5v458.87c0 166.31 134.31 301.13 300 301.13 165.69 0 300-134.82 300-301.13v-458.87h-600z" fill="#fff"/>
<g transform="matrix(1.0564 0 0 1.0564 -43.32 -13.118)" fill-rule="evenodd" stroke="#000" stroke-width="3">
<path d="m589.16 317.03c-28.278-57.854-69.079-79.613-130.09-43.122 20.646 59.809 61.279 79.642 130.09 43.122z" fill="#5ab532"/>
<path d="m542.36 104.64c-61.84 17.961-80.138 71.064-54.626 137.42 65.671-12.4 88.415-70.219 54.626-137.42z" fill="#5ab532"/>
<path d="m496.02 60.524c-57.346-16.878-132.12 25.017-111.74 91.873 39.904-1.5944 111.76-10.512 111.74-91.873z" fill="#5ab532"/>
<path d="m324.79 34.01c-47.561 36.213-48.684 93.076 0.62674 127.82 30.299-26.592 64.945-79.651-0.62674-127.82z" fill="#5ab532"/>
<path d="m160.17 64.186c-0.56709 60.807 53.61 106.83 112.63 84.543 4.578-46.733-34.5-107.24-112.63-84.543z" fill="#5ab532"/>
<path d="m112.32 105.08c-31.799 51.832-7.613 135.81 57.35 137.7 20.76-36.979 21.314-116.92-57.35-137.7z" fill="#5ab532"/>
<path d="m65.781 318.19c52.122 31.322 125.03 9.2582 126.33-55.719-37.168-20.42-106.27-23.132-126.33 55.719z" fill="#5ab532"/>
<path d="m65.781 318.19c52.122 31.322 125.03 9.2582 126.33-55.719-37.168-20.42-106.27-23.132-126.33 55.719z" fill="#5ab532"/>
<path d="m51.975 358.84c6.2217 60.49 67.624 96.176 120.38 67.616-5.9693-41.986-45.267-98.891-120.38-67.616z" fill="#5ab532"/>
<path d="m480.25 426.8c55.327 25.235 115.73-6.7867 117.78-66.74-39.237-16.091-106.76-13.872-117.78 66.74z" fill="#5ab532"/>
<path d="m80.215 543.17c56.092 0.2822 102.58-62.968 90.953-110.47-42.295-3.099-94.69 23.917-90.953 110.47z" fill="#5ab532"/>
<path d="m479.47 431.09c-9.1821 59.474 27.371 120.22 86.831 112.28 7.9005-37.751-5.5093-107.58-86.831-112.28z" fill="#5ab532"/>
<path d="m306.1 577.67c2.135 41.917-37.27 83.834 16.139 136.6 43.668-52.979 18.467-92.439 16.628-134.43 22.718 54.283 105.74 28.768 58.772 103.83 28.071-4.9294 66.17-23.335 30.598-72.274 25.945-0.87328 58.479-7.2088 59.261 36.382 43.959-60.997-7.8138-80.696-58.533-66.628-31.494 8.7354-53.661-3.745-68.176-32.375-19.778-39.011-14.459-121.9-14.459-121.9 19.031 10.178 39.507 10.634 57.092 11.078l6.5066 22.646 11.567 0.48894-1.9946-22.153c21.058-0.24794 42.602-2.9007 59.81-6.9988l56.369 74.677-50.352-77.569 84.075-53.966c-82.368 56.317-159.72 53.631-223.8 26.26l-5.0607-96.6c20.997 7.1784 45.051 6.7165 69.871 4.3377l0.95695 19.031h13.97l0.72294-23.602c19.074-8.7957 27.52-19.717 37.339-30.364 30.194 18.649 60.388 22.714 90.582 32.767-27.784-12.056-55.568-17.457-83.352-38.061 35.418-33.199 40.97-81.331 59.261-123.09-34.497 72.653-74.942 182.48-189.58 126.71l-0.72295-61.43c2.2472-55.464 73.978-42.646 69.382-7.4635l12.035-2.1689c4.6279-32.597-13.458-45.32-39.507-51.075l82.63-68.17c-29.341 20.692-79.324 59.587-90.308 64.15-16.219 6.0055-27.179 14.918-37.846 26.666-1.6342-36.857-7.7042-73.713-13.013-110.57 1.7004 38.061 3.952 76.123-7.4635 114.18-36.569-37.626-86.75-61.64-130.32-92.262l84.075 68.17c-33.01-1.311-30.727 25.935-32.044 43.845l14.504-1.2516c0.73259-47.998 56.322-13.328 57.281 14.265l-1.4459 60.941c-62.718 55.504-141.03-15.713-180.68-130.32 15.489 43.373 28.738 94.787 51.075 129.6l-75.166 35.659 78.781-28.918c9.0292 13.857 24.286 21.487 40.953 27.706l-2.8918 24.091h13.97v-19.754c30.016 6.341 51.239 2.1309 71.785-2.8918l-1.6799 91.539c-68.05 35.331-137.92 32.387-209.83-13.247l70.105 43.122-54.689 78.292 66.491-71.062c14.457 3.6767 29.165 6.6034 45.525 4.5717l1.9349 24.091h15.416c-3.1404-6.72-10.269-9.8659 1.4459-22.157 5.6136-4.7991 42.314-3.5115 62.387-10.121-7.3616 49.349-6.1107 109.83-29.386 134.66-26.465 28.233-53.136 9.6224-87.979 15.644-67.42 11.652-41.316 50.789-16.807 74.215-6.8161-35.047 14.994-47.829 60.218-42.399-24.755 29.623-29.632 72.908 30.598 71.062-54.096-70.209 29.099-48.277 46.971-106z" fill="#5ab532"/>
<path d="m264.77 464.34c17.062 24.208 18.871 72.212-31.183 76.97l-4.6008-6.9736-2.884 6.9736c-42.474 5.8806-66.158-101.69 2.556-78.504 0 0 25.626-13.344 36.112 1.5336z" fill="#e20909"/>
<path d="m461.94 468.05c16.132 22.791 10.196 62.452-35.883 71.186l-4.6008-6.9736-2.884 6.9736c-51.794 8.4226-65.67-100.18-2.5046-76.696 0 0 30.494-16.216 45.872 5.5098z" fill="#e20909"/>
<path d="m467.57 328.46c16.132 22.791 4.4125 63.536-41.666 72.271l-4.6008-6.9736-2.884 6.9736c-51.794 8.4226-65.67-100.18-2.5046-76.696 0 0 36.277-17.3 51.656 4.4254z" fill="#e20909"/>
<path d="m454.96 199.89c16.132 22.791 6.9428 59.56-39.136 68.295l-4.6008-6.9736-2.884 6.9736c-54.139 7.8644-72.87-101.79 6.1708-74.527 0 0 25.072-15.493 40.45 6.2328z" fill="#e20909"/>
<path d="m267.15 331.38c17.062 24.208 12.003 66.067-38.052 70.825l-4.6008-6.9736-2.884 6.9736c-57.154 5.6778-74.38-112 2.556-74.527 0 0 32.494-11.176 42.98 3.7024z" fill="#e20909"/>
<path d="m290.44 215.36c1.0096 5.674 4.4125 46.547-45.642 51.305l-4.6008-6.9736-2.884 6.9736c-58.562-1.7625-59.843-102.05 2.556-74.527 0 0 43.968-13.888 50.571 23.222z" fill="#e20909"/>
</g>
<g>
<path d="m1.5 1.5v458.87c0 166.31 134.31 301.13 300 301.13 165.69 0 300-134.82 300-301.13v-458.87h-600z" fill="url(#a)"/>
<path d="m1.5 1.5v458.87c0 166.31 134.31 301.13 300 301.13 165.69 0 300-134.82 300-301.13v-458.87h-600z" fill="none" stroke="#000" stroke-width="3"/>
</g>
</svg>
